X:681
M:C|
L:1/8
K:F
c|~fcfa gceg|a/g/f g/f/e ~f2 cB|AcdB cffd|cBAG ~F2 FA|
~fcfa gceg|a/g/f g/f/e ~f2 cf|AFcF fdcB|AcCE ~F2F||

